;FLAVOR:Marlin
;TIME:559
;Filament used: 0.597251m
;Layer height: 0.2
;MINX:82.05
;MINY:91.05
;MINZ:0.3
;MAXX:137.95
;MAXY:128.95
;MAXZ:8.9
;Generated with Cura_SteamEngine 4.2.1
M140 S110
M105
M190 S110
M104 S230
M105
M109 S230
M82 ;absolute extrusion mode
G21 ;metric values
G90 ;absolute positioning
M82 ;set extruder to absolute mode
G28
G29
M107 ;start with the fan off
G28 X0 Y0 ;move X/Y to min endstops
G28 Z0 ;move Z to min endstops
M84 ;steppers off
M0 S2 ;wait 2 seconds
M17 ;turn steppers on
G1 Z10.0 F300 ;move the platform down 10mm
G92 E0 ;zero the extruded length
G1 F200 E18 ;extrude 8mm of feed stock
G92 E0 ;zero the extruded length again
M0 S5 ;wait 5 seconds
G1 F9000
M117 Printing...
M141 S36
G92 E0
G92 E0
G1 F1500 E-6.5
;LAYER_COUNT:44
;LAYER:0
M107
G0 F3600 X85.234 Y94.221 Z0.3
;TYPE:SKIRT
G1 F1500 E0
G1 F3300 X85.807 Y93.703 E0.0289
G1 X86.246 Y93.343 E0.05015
G1 X86.887 Y92.869 E0.07998
G1 X87.533 Y92.482 E0.10815
G1 X88.037 Y92.212 E0.12955
G1 X88.758 Y91.871 E0.15939
G1 X89.489 Y91.611 E0.18842
G1 X90.031 Y91.447 E0.20961
G1 X90.804 Y91.254 E0.23942
G1 X91.552 Y91.144 E0.26771
G1 X92.119 Y91.088 E0.28903
G1 X92.915 Y91.05 E0.31885
G1 X93.681 Y91.088 E0.34755
G1 X94.248 Y91.144 E0.36886
G1 X95.037 Y91.263 E0.39872
G1 X95.769 Y91.447 E0.42696
G1 X96.311 Y91.611 E0.44815
G1 X97.062 Y91.88 E0.478
G1 X97.763 Y92.212 E0.50702
G1 X98.267 Y92.482 E0.52842
G1 X98.95 Y92.893 E0.55824
G1 X99.551 Y93.34 E0.58627
G1 X99.988 Y93.698 E0.60741
G1 X100.579 Y94.234 E0.63726
G1 X101.097 Y94.807 E0.66616
G1 X101.457 Y95.246 E0.68741
G1 X101.931 Y95.887 E0.71724
G1 X102.318 Y96.533 E0.74542
G1 X102.588 Y97.037 E0.76681
G1 X102.929 Y97.758 E0.79665
G1 X103.033 Y98.05 E0.80825
G1 X116.967 Y98.05 E1.32963
G1 X116.977 Y98.023 E1.33071
G1 X117.192 Y97.502 E1.3518
G1 X117.533 Y96.782 E1.3816
G1 X117.926 Y96.125 E1.41025
G1 X118.244 Y95.648 E1.4317
G1 X118.719 Y95.008 E1.46152
G1 X119.238 Y94.437 E1.4904
G1 X119.637 Y94.038 E1.51151
G1 X120.228 Y93.503 E1.54134
G1 X120.848 Y93.044 E1.5702
G1 X121.325 Y92.726 E1.59165
G1 X122.01 Y92.318 E1.62149
G1 X122.702 Y91.992 E1.65011
G1 X123.223 Y91.777 E1.6712
G1 X123.975 Y91.51 E1.70106
G1 X124.702 Y91.329 E1.72909
G1 X125.264 Y91.217 E1.75053
G1 X126.053 Y91.101 E1.78037
G1 X126.818 Y91.064 E1.80903
G1 X127.382 Y91.064 E1.83013
G1 X128.178 Y91.104 E1.85996
G1 X128.936 Y91.217 E1.88863
G1 X129.498 Y91.329 E1.91007
G1 X130.271 Y91.524 E1.9399
G1 X130.977 Y91.777 E1.96797
G1 X131.498 Y91.992 E1.98906
G1 X132.218 Y92.333 E2.01887
G1 X132.875 Y92.726 E2.04751
G1 X133.352 Y93.044 E2.06896
G1 X133.992 Y93.519 E2.09878
G1 X134.563 Y94.038 E2.12766
G1 X134.962 Y94.437 E2.14877
G1 X135.497 Y95.028 E2.1786
G1 X135.956 Y95.648 E2.20746
G1 X136.274 Y96.125 E2.22891
G1 X136.682 Y96.81 E2.25875
G1 X137.008 Y97.502 E2.28737
G1 X137.223 Y98.023 E2.30846
G1 X137.49 Y98.775 E2.33832
G1 X137.671 Y99.502 E2.36635
G1 X137.783 Y100.064 E2.38779
G1 X137.899 Y100.853 E2.41763
G1 X137.936 Y101.618 E2.44629
G1 X137.936 Y102.182 E2.4674
G1 X137.896 Y102.978 E2.49722
G1 X137.783 Y103.736 E2.52589
G1 X137.711 Y104.097 E2.53967
G1 X137.84 Y104.684 E2.56216
G1 X137.933 Y105.476 E2.59199
G1 X137.95 Y106 E2.61161
G1 X137.95 Y121 E3.17288
G1 X137.91 Y121.796 E3.2027
G1 X137.791 Y122.584 E3.23252
G1 X137.593 Y123.357 E3.26237
G1 X137.318 Y124.105 E3.29219
G1 X136.971 Y124.823 E3.32203
G1 X136.553 Y125.502 E3.35187
G1 X136.069 Y126.135 E3.38168
G1 X135.524 Y126.717 E3.41152
G1 X134.924 Y127.242 E3.44135
G1 X134.274 Y127.704 E3.47119
G1 X133.581 Y128.098 E3.50102
G1 X132.852 Y128.421 E3.53085
G1 X132.094 Y128.669 E3.56069
G1 X131.316 Y128.84 E3.5905
G1 X130.524 Y128.933 E3.62034
G1 X130 Y128.95 E3.63996
G1 X90 Y128.95 E5.13666
G1 X89.204 Y128.91 E5.16648
G1 X88.416 Y128.791 E5.1963
G1 X87.643 Y128.593 E5.22616
G1 X86.895 Y128.318 E5.25598
G1 X86.177 Y127.971 E5.28582
G1 X85.498 Y127.553 E5.31566
G1 X84.865 Y127.069 E5.34547
G1 X84.283 Y126.524 E5.37531
G1 X83.758 Y125.924 E5.40514
G1 X83.296 Y125.274 E5.43498
G1 X82.902 Y124.581 E5.4648
G1 X82.579 Y123.852 E5.49464
G1 X82.331 Y123.094 E5.52448
G1 X82.16 Y122.316 E5.55429
G1 X82.067 Y121.524 E5.58413
G1 X82.05 Y121 E5.60374
G1 X82.05 Y106 E6.16501
G1 X82.09 Y105.204 E6.19483
G1 X82.209 Y104.416 E6.22465
G1 X82.285 Y104.12 E6.23608
G1 X82.254 Y103.996 E6.24087
G1 X82.145 Y103.251 E6.26904
G1 X82.089 Y102.686 E6.29028
G1 X82.05 Y101.89 E6.3201
G1 X82.088 Y101.125 E6.34876
G1 X82.144 Y100.555 E6.37019
G1 X82.262 Y99.766 E6.40005
G1 X82.448 Y99.026 E6.4286
G1 X82.612 Y98.485 E6.44975
G1 X82.881 Y97.734 E6.4796
G1 X83.212 Y97.037 E6.50847
G1 X83.482 Y96.533 E6.52986
G1 X83.893 Y95.85 E6.55969
G1 X84.34 Y95.249 E6.58772
G1 X84.698 Y94.812 E6.60885
G1 X85.234 Y94.221 E6.63871
G0 F3600 X85.456 Y94.423
G1 F3300 X85.997 Y93.935 E6.66597
G1 X86.436 Y93.575 E6.68721
G1 X87.065 Y93.11 E6.71648
G1 X87.675 Y92.747 E6.74304
G1 X88.179 Y92.477 E6.76444
G1 X88.886 Y92.143 E6.79369
G1 X89.575 Y91.898 E6.82106
G1 X90.117 Y91.734 E6.84224
G1 X90.877 Y91.546 E6.87154
G1 X91.581 Y91.443 E6.89816
G1 X92.148 Y91.387 E6.91948
G1 X92.929 Y91.35 E6.94874
G1 X93.652 Y91.387 E6.97582
G1 X94.219 Y91.443 E6.99714
G1 X94.992 Y91.56 E7.0264
G1 X95.683 Y91.734 E7.05306
G1 X96.225 Y91.898 E7.07425
G1 X96.961 Y92.162 E7.10351
G1 X97.621 Y92.477 E7.13087
G1 X98.125 Y92.747 E7.15226
G1 X98.795 Y93.151 E7.18154
G1 X99.361 Y93.572 E7.20793
G1 X99.798 Y93.93 E7.22907
G1 X100.377 Y94.456 E7.25834
G1 X100.865 Y94.997 E7.2856
G1 X101.225 Y95.436 E7.30685
G1 X101.69 Y96.065 E7.33611
G1 X102.053 Y96.675 E7.36268
G1 X102.323 Y97.179 E7.38407
G1 X102.657 Y97.886 E7.41333
G1 X102.822 Y98.35 E7.43175
G1 X117.178 Y98.35 E7.96892
G1 X117.254 Y98.138 E7.97735
G1 X117.469 Y97.617 E7.99844
G1 X117.804 Y96.91 E8.02771
G1 X118.176 Y96.292 E8.0547
G1 X118.494 Y95.815 E8.07615
G1 X118.96 Y95.187 E8.10541
G1 X119.45 Y94.649 E8.13264
G1 X119.849 Y94.25 E8.15376
G1 X120.429 Y93.726 E8.183
G1 X121.015 Y93.294 E8.21024
G1 X121.492 Y92.976 E8.2317
G1 X122.164 Y92.576 E8.26096
G1 X122.817 Y92.269 E8.28796
G1 X123.338 Y92.054 E8.30905
G1 X124.075 Y91.793 E8.3383
G1 X124.761 Y91.624 E8.36474
G1 X125.323 Y91.512 E8.38618
G1 X126.097 Y91.398 E8.41545
G1 X126.818 Y91.364 E8.44246
G1 X127.382 Y91.364 E8.46356
G1 X128.163 Y91.404 E8.49283
G1 X128.877 Y91.512 E8.51985
G1 X129.439 Y91.624 E8.54129
G1 X130.197 Y91.815 E8.57054
G1 X130.862 Y92.054 E8.59698
G1 X131.383 Y92.269 E8.61807
G1 X132.09 Y92.604 E8.64734
G1 X132.708 Y92.976 E8.67433
G1 X133.185 Y93.294 E8.69578
G1 X133.813 Y93.76 E8.72504
G1 X134.351 Y94.25 E8.75227
G1 X134.75 Y94.649 E8.77339
G1 X135.274 Y95.229 E8.80263
G1 X135.706 Y95.815 E8.82987
G1 X136.024 Y96.292 E8.85133
G1 X136.424 Y96.964 E8.88059
G1 X136.731 Y97.617 E8.90759
G1 X136.946 Y98.138 E8.92868
G1 X137.207 Y98.875 E8.95793
G1 X137.376 Y99.561 E8.98437
G1 X137.488 Y100.123 E9.00581
G1 X137.602 Y100.897 E9.03508
G1 X137.636 Y101.618 E9.06209
G1 X137.636 Y102.182 E9.0832
G1 X137.596 Y102.963 E9.11246
G1 X137.488 Y103.677 E9.13948
G1 X137.405 Y104.095 E9.15542
G1 X137.428 Y104.172 E9.15843
G1 X137.576 Y104.94 E9.1877
G1 X137.65 Y106 E9.22745
G1 X137.65 Y121 E9.78872
G1 X137.61 Y121.781 E9.81798
G1 X137.491 Y122.554 E9.84725
G1 X137.293 Y123.311 E9.87652
G1 X137.019 Y124.043 E9.90577
G1 X136.671 Y124.744 E9.93505
G1 X136.254 Y125.405 E9.9643
G1 X135.772 Y126.021 E9.99356
G1 X135.229 Y126.584 E10.02283
G1 X134.632 Y127.088 E10.05207
G1 X133.986 Y127.53 E10.08135
G1 X133.298 Y127.902 E10.11062
G1 X132.577 Y128.203 E10.13985
G1 X131.828 Y128.428 E10.16912
G1 X131.06 Y128.576 E10.19838
G1 X130 Y128.65 E10.23814
G1 X90 Y128.65 E11.73485
G1 X89.219 Y128.61 E11.76411
G1 X88.446 Y128.491 E11.79337
G1 X87.689 Y128.293 E11.82265
G1 X86.957 Y128.019 E11.8519
G1 X86.256 Y127.671 E11.88118
G1 X85.595 Y127.254 E11.91042
G1 X84.979 Y126.772 E11.93969
G1 X84.416 Y126.229 E11.96896
G1 X83.912 Y125.632 E11.99819
G1 X83.47 Y124.986 E12.02748
G1 X83.098 Y124.298 E12.05675
G1 X82.797 Y123.577 E12.08598
G1 X82.572 Y122.828 E12.11524
G1 X82.424 Y122.06 E12.14451
G1 X82.35 Y121 E12.18427
G1 X82.35 Y106 E12.74553
G1 X82.39 Y105.219 E12.7748
G1 X82.509 Y104.446 E12.80406
G1 X82.595 Y104.119 E12.81671
G1 X82.546 Y103.923 E12.82427
G1 X82.443 Y103.222 E12.85078
G1 X82.387 Y102.657 E12.87203
G1 X82.35 Y101.875 E12.90132
G1 X82.387 Y101.154 E12.92833
G1 X82.443 Y100.584 E12.94977
G1 X82.559 Y99.811 E12.97901
G1 X82.735 Y99.113 E13.00595
G1 X82.899 Y98.572 E13.0271
G1 X83.164 Y97.836 E13.05637
G1 X83.477 Y97.179 E13.0836
G1 X83.747 Y96.675 E13.105
G1 X84.151 Y96.005 E13.13427
G1 X84.572 Y95.439 E13.16066
G1 X84.93 Y95.002 E13.1818
G1 X85.456 Y94.423 E13.21107
G0 F3600 X85.678 Y94.625
G1 F3300 X86.187 Y94.167 E13.23669
G1 X86.626 Y93.807 E13.25794
G1 X87.244 Y93.352 E13.28665
G1 X87.816 Y93.011 E13.31157
G1 X88.32 Y92.741 E13.33296
G1 X89.014 Y92.415 E13.36165
G1 X89.662 Y92.185 E13.38738
G1 X90.204 Y92.021 E13.40857
G1 X90.949 Y91.838 E13.43728
G1 X91.611 Y91.742 E13.46231
G1 X92.178 Y91.686 E13.48362
G1 X92.943 Y91.65 E13.51228
G1 X93.622 Y91.686 E13.53772
G1 X94.189 Y91.742 E13.55904
G1 X94.947 Y91.857 E13.58773
G1 X95.596 Y92.021 E13.61278
G1 X96.138 Y92.185 E13.63397
G1 X96.859 Y92.445 E13.66264
G1 X97.48 Y92.741 E13.68838
G1 X97.984 Y93.011 E13.70978
G1 X98.64 Y93.408 E13.73847
G1 X99.171 Y93.804 E13.76326
G1 X99.608 Y94.162 E13.78439
G1 X100.175 Y94.678 E13.81308
G1 X100.633 Y95.187 E13.8387
G1 X100.993 Y95.626 E13.85994
G1 X101.448 Y96.244 E13.88866
G1 X101.789 Y96.816 E13.91358
G1 X102.059 Y97.32 E13.93497
G1 X102.385 Y98.014 E13.96366
G1 X102.611 Y98.65 E13.98892
G1 X117.389 Y98.65 E14.54187
G1 X117.532 Y98.252 E14.5577
G1 X117.747 Y97.731 E14.57879
G1 X118.076 Y97.039 E14.60746
G1 X118.425 Y96.458 E14.63282
G1 X118.743 Y95.981 E14.65427
G1 X119.201 Y95.366 E14.68296
G1 X119.662 Y94.861 E14.70855
G1 X120.061 Y94.462 E14.72966
G1 X120.63 Y93.949 E14.75833
G1 X121.181 Y93.543 E14.78394
G1 X121.658 Y93.225 E14.80539
G1 X122.317 Y92.834 E14.83406
G1 X122.931 Y92.547 E14.85942
G1 X123.452 Y92.332 E14.88051
G1 X124.175 Y92.077 E14.90919
G1 X124.819 Y91.918 E14.93402
G1 X125.381 Y91.806 E14.95546
G1 X126.14 Y91.695 E14.98416
G1 X126.818 Y91.664 E15.00956
G1 X127.382 Y91.664 E15.03066
G1 X128.148 Y91.704 E15.05936
G1 X128.819 Y91.806 E15.08476
G1 X129.381 Y91.918 E15.1062
G1 X130.123 Y92.107 E15.13485
G1 X130.748 Y92.332 E15.1597
G1 X131.269 Y92.547 E15.18079
G1 X131.961 Y92.876 E15.20946
G1 X132.542 Y93.225 E15.23482
G1 X133.019 Y93.543 E15.25627
G1 X133.634 Y94.001 E15.28497
G1 X134.139 Y94.462 E15.31055
G1 X134.538 Y94.861 E15.33167
G1 X135.051 Y95.43 E15.36033
G1 X135.457 Y95.981 E15.38594
G1 X135.775 Y96.458 E15.40739
G1 X136.166 Y97.117 E15.43606
G1 X136.453 Y97.731 E15.46142
G1 X136.668 Y98.252 E15.48251
G1 X136.923 Y98.975 E15.5112
G1 X137.082 Y99.619 E15.53602
G1 X137.194 Y100.181 E15.55746
G1 X137.305 Y100.94 E15.58616
G1 X137.336 Y101.618 E15.61156
G1 X137.336 Y102.182 E15.63266
G1 X137.296 Y102.948 E15.66136
G1 X137.194 Y103.619 E15.68676
G1 X137.095 Y104.117 E15.70576
G1 X137.182 Y104.436 E15.71813
G1 X137.306 Y105.193 E15.74683
G1 X137.35 Y106 E15.77707
G1 X137.35 Y121 E16.33834
G1 X137.31 Y121.766 E16.36704
G1 X137.191 Y122.523 E16.39571
G1 X136.993 Y123.263 E16.42438
G1 X136.719 Y123.979 E16.45306
G1 X136.372 Y124.663 E16.48176
G1 X135.956 Y125.307 E16.51045
G1 X135.475 Y125.904 E16.53913
G1 X134.935 Y126.447 E16.56779
G1 X134.341 Y126.931 E16.59646
G1 X133.699 Y127.351 E16.62517
G1 X133.018 Y127.702 E16.65383
G1 X132.303 Y127.98 E16.68254
G1 X131.564 Y128.182 E16.7112
G1 X130.807 Y128.306 E16.73991
G1 X130 Y128.35 E16.77015
G1 X90 Y128.35 E18.26685
G1 X89.234 Y128.31 E18.29555
G1 X88.477 Y128.191 E18.32423
G1 X87.737 Y127.993 E18.35289
G1 X87.021 Y127.719 E18.38158
G1 X86.337 Y127.372 E18.41027
G1 X85.693 Y126.956 E18.43896
G1 X85.096 Y126.475 E18.46765
G1 X84.553 Y125.935 E18.4963
G1 X84.069 Y125.341 E18.52497
G1 X83.649 Y124.699 E18.55368
G1 X83.298 Y124.018 E18.58235
G1 X83.02 Y123.303 E18.61105
G1 X82.818 Y122.564 E18.63972
G1 X82.694 Y121.807 E18.66842
G1 X82.65 Y121 E18.69866
G1 X82.65 Y106 E19.25992
G1 X82.69 Y105.234 E19.28863
G1 X82.809 Y104.477 E19.3173
G1 X82.904 Y104.121 E19.33109
G1 X82.838 Y103.851 E19.34149
G1 X82.742 Y103.192 E19.3664
G1 X82.686 Y102.627 E19.38765
G1 X82.65 Y101.861 E19.41634
G1 X82.685 Y101.183 E19.44175
G1 X82.741 Y100.613 E19.46318
G1 X82.856 Y99.855 E19.49186
G1 X83.022 Y99.2 E19.51715
G1 X83.186 Y98.659 E19.5383
G1 X83.446 Y97.938 E19.56698
G1 X83.741 Y97.32 E19.5926
G1 X84.011 Y96.816 E19.614
G1 X84.408 Y96.16 E19.64269
G1 X84.804 Y95.629 E19.66747
G1 X85.162 Y95.192 E19.68861
G1 X85.678 Y94.625 E19.7173
G0 F3600 X85.9 Y94.828
G1 F3300 X86.378 Y94.399 E19.74133
G1 X86.817 Y94.039 E19.76257
G1 X87.422 Y93.594 E19.79067
G1 X87.958 Y93.276 E19.81399
G1 X88.462 Y93.006 E19.83539
G1 X89.142 Y92.687 E19.86349
G1 X89.749 Y92.472 E19.88759
G1 X90.291 Y92.308 E19.90878
G1 X91.02 Y92.129 E19.93686
G1 X91.64 Y92.04 E19.9603
G1 X92.207 Y91.984 E19.98162
G1 X92.957 Y91.95 E20.00971
G1 X93.593 Y91.984 E20.03354
G1 X94.16 Y92.04 E20.05486
G1 X94.902 Y92.154 E20.08295
G1 X95.509 Y92.308 E20.10638
G1 X96.051 Y92.472 E20.12757
G1 X96.757 Y92.728 E20.15567
G1 X97.338 Y93.006 E20.17977
G1 X97.842 Y93.276 E20.20117
G1 X98.484 Y93.665 E20.22925
G1 X98.981 Y94.036 E20.25246
G1 X99.418 Y94.394 E20.2736
G1 X99.972 Y94.9 E20.30167
G1 X100.401 Y95.378 E20.32571
G1 X100.761 Y95.817 E20.34695
G1 X101.206 Y96.422 E20.37505
G1 X101.524 Y96.958 E20.39837
G1 X101.794 Y97.462 E20.41977
G1 X102.113 Y98.142 E20.44787
G1 X102.327 Y98.746 E20.47185
G1 X102.389 Y98.95 E20.47982
G1 X117.598 Y98.95 E21.04891
G1 X117.809 Y98.367 E21.07211
G1 X118.024 Y97.846 E21.0932
G1 X118.347 Y97.168 E21.1213
G1 X118.675 Y96.624 E21.14507
G1 X118.993 Y96.147 E21.16652
G1 X119.442 Y95.546 E21.19459
G1 X119.874 Y95.073 E21.21856
G1 X120.273 Y94.674 E21.23967
G1 X120.831 Y94.172 E21.26776
G1 X121.347 Y93.793 E21.29171
G1 X121.824 Y93.475 E21.31316
G1 X122.47 Y93.092 E21.34127
G1 X123.046 Y92.824 E21.36504
G1 X123.567 Y92.609 E21.38613
G1 X124.275 Y92.36 E21.41421
G1 X124.878 Y92.212 E21.43744
G1 X125.44 Y92.1 E21.45888
G1 X126.183 Y91.993 E21.48697
G1 X126.818 Y91.964 E21.51076
G1 X127.382 Y91.964 E21.53186
G1 X128.132 Y92.004 E21.55996
G1 X128.76 Y92.1 E21.58373
G1 X129.322 Y92.212 E21.60518
G1 X130.049 Y92.398 E21.63326
G1 X130.633 Y92.609 E21.65649
G1 X131.154 Y92.824 E21.67758
G1 X131.832 Y93.147 E21.70568
G1 X132.376 Y93.475 E21.72945
G1 X132.853 Y93.793 E21.7509
G1 X133.454 Y94.242 E21.77897
G1 X133.927 Y94.674 E21.80294
G1 X134.326 Y95.073 E21.82405
G1 X134.828 Y95.631 E21.85214
G1 X135.207 Y96.147 E21.87609
G1 X135.525 Y96.624 E21.89755
G1 X135.908 Y97.27 E21.92565
G1 X136.176 Y97.846 E21.94942
G1 X136.391 Y98.367 E21.97051
G1 X136.64 Y99.075 E21.99859
G1 X136.788 Y99.678 E22.02182
G1 X136.9 Y100.24 E22.04326
G1 X137.007 Y100.983 E22.07135
G1 X137.036 Y101.618 E22.09514
G1 X137.036 Y102.182 E22.11624
G1 X136.996 Y102.932 E22.14434
G1 X136.9 Y103.56 E22.16811
G1 X136.788 Y104.121 E22.18952
G1 X136.929 Y104.698 E22.21175
G1 X137.028 Y105.442 E22.23983
G1 X137.05 Y106 E22.26072
G1 X137.05 Y121 E22.82199
G1 X137.01 Y121.75 E22.85009
G1 X136.891 Y122.491 E22.87817
G1 X136.693 Y123.215 E22.90626
G1 X136.419 Y123.914 E22.93435
G1 X136.073 Y124.58 E22.96243
G1 X135.658 Y125.206 E22.99054
G1 X135.179 Y125.784 E23.01863
G1 X134.641 Y126.307 E23.0467
G1 X134.05 Y126.771 E23.07482
G1 X133.413 Y127.169 E23.10292
G1 X132.738 Y127.497 E23.131
G1 X132.032 Y127.751 E23.15908
