; G-Code generated by Simplify3D(R) Version 4.0.1
; Mar 29, 2019 at 10:36:09 AM
; Settings Summary
;   processName,Process1
;   applyToModels,Brave Vihelmo (3)
;   profileName,Anet_ABS(2) (modified)
;   profileVersion,2017-08-29 20:29:29
;   baseProfile,Default (modified)
;   printMaterial,ABS
;   printQuality,ALTA
;   printExtruders,
;   extruderName,Primary Extruder
;   extruderToolheadNumber,0
;   extruderDiameter,0.4
;   extruderAutoWidth,0
;   extruderWidth,0.2
;   extrusionMultiplier,1.1
;   extruderUseRetract,1
;   extruderRetractionDistance,1
;   extruderExtraRestartDistance,0
;   extruderRetractionZLift,0
;   extruderRetractionSpeed,1800
;   extruderUseCoasting,1
;   extruderCoastingDistance,0.2
;   extruderUseWipe,0
;   extruderWipeDistance,5
;   primaryExtruder,0
;   layerHeight,0.15
;   topSolidLayers,5
;   bottomSolidLayers,5
;   perimeterOutlines,3
;   printPerimetersInsideOut,1
;   startPointOption,2
;   startPointOriginX,0
;   startPointOriginY,0
;   sequentialIslands,0
;   spiralVaseMode,0
;   firstLayerHeightPercentage,60
;   firstLayerWidthPercentage,110
;   firstLayerUnderspeed,0.5
;   useRaft,0
;   raftExtruder,0
;   raftTopLayers,3
;   raftBaseLayers,2
;   raftOffset,3
;   raftSeparationDistance,0.14
;   raftTopInfill,100
;   aboveRaftSpeedMultiplier,0.3
;   useSkirt,1
;   skirtExtruder,0
;   skirtLayers,1
;   skirtOutlines,5
;   skirtOffset,0
;   usePrimePillar,0
;   primePillarExtruder,999
;   primePillarWidth,12
;   primePillarLocation,7
;   primePillarSpeedMultiplier,1
;   useOozeShield,0
;   oozeShieldExtruder,999
;   oozeShieldOffset,2
;   oozeShieldOutlines,1
;   oozeShieldSidewallShape,1
;   oozeShieldSidewallAngle,30
;   oozeShieldSpeedMultiplier,1
;   infillExtruder,0
;   internalInfillPattern,Rectilinear
;   externalInfillPattern,Rectilinear
;   infillPercentage,100
;   outlineOverlapPercentage,15
;   infillExtrusionWidthPercentage,100
;   minInfillLength,5
;   infillLayerInterval,1
;   internalInfillAngles,45,-45
;   overlapInternalInfillAngles,0
;   externalInfillAngles,45,-45
;   generateSupport,0
;   supportExtruder,0
;   supportInfillPercentage,25
;   supportExtraInflation,0
;   supportBaseLayers,0
;   denseSupportExtruder,0
;   denseSupportLayers,0
;   denseSupportInfillPercentage,70
;   supportLayerInterval,1
;   supportHorizontalPartOffset,0.3
;   supportUpperSeparationLayers,1
;   supportLowerSeparationLayers,1
;   supportType,0
;   supportGridSpacing,4
;   maxOverhangAngle,45
;   supportAngles,0
;   temperatureName,Primary Extruder,HeatBead
;   temperatureNumber,0,0
;   temperatureSetpointCount,2,1
;   temperatureSetpointLayers,1,2,1
;   temperatureSetpointTemperatures,230,225,110
;   temperatureStabilizeAtStartup,1,1
;   temperatureHeatedBed,0,1
;   temperatureRelayBetweenLayers,0,0
;   temperatureRelayBetweenLoops,0,0
;   fanLayers,1
;   fanSpeeds,0
;   blipFanToFullPower,0
;   adjustSpeedForCooling,1
;   minSpeedLayerTime,15
;   minCoolingSpeedSlowdown,20
;   increaseFanForCooling,1
;   minFanLayerTime,45
;   maxCoolingFanSpeed,100
;   increaseFanForBridging,1
;   bridgingFanSpeed,100
;   use5D,1
;   relativeEdistances,0
;   allowEaxisZeroing,1
;   independentExtruderAxes,0
;   includeM10123,0
;   stickySupport,1
;   applyToolheadOffsets,0
;   gcodeXoffset,0
;   gcodeYoffset,0
;   gcodeZoffset,0
;   overrideMachineDefinition,0
;   machineTypeOverride,0
;   strokeXoverride,200
;   strokeYoverride,200
;   strokeZoverride,200
;   originOffsetXoverride,0
;   originOffsetYoverride,0
;   originOffsetZoverride,0
;   homeXdirOverride,-1
;   homeYdirOverride,-1
;   homeZdirOverride,-1
;   flipXoverride,1
;   flipYoverride,-1
;   flipZoverride,1
;   toolheadOffsets,0,0|0,0|0,0|0,0|0,0|0,0
;   overrideFirmwareConfiguration,0
;   firmwareTypeOverride,RepRap (Marlin/Repetier/Sprinter)
;   GPXconfigOverride,r2
;   baudRateOverride,115200
;   overridePrinterModels,0
;   printerModelsOverride
;   startingGcode,G28 ; home all axes
;   layerChangeGcode,
;   retractionGcode,
;   toolChangeGcode,
;   endingGcode,M104 S0 ; turn off extruder,M140 S0 ; turn off bed,M84 ; disable motors
;   exportFileFormat,gcode
;   celebration,0
;   celebrationSong,Star Wars
;   postProcessing,
;   defaultSpeed,4800
;   outlineUnderspeed,0.5
;   solidInfillUnderspeed,0.7
;   supportUnderspeed,0.7
;   rapidXYspeed,4200
;   rapidZspeed,1002
;   minBridgingArea,50
;   bridgingExtraInflation,0
;   bridgingExtrusionMultiplier,1
;   bridgingSpeedMultiplier,1
;   useFixedBridgingAngle,0
;   fixedBridgingAngle,0
;   applyBridgingToPerimeters,0
;   filamentDiameters,1.75|1.75|1.75|1.75|1.75|1.75
;   filamentPricesPerKg,150|150|150|150|150|150
;   filamentDensities,1.25|1.25|1.25|1.25|1.25|1.25
;   useMinPrintHeight,0
;   minPrintHeight,0
;   useMaxPrintHeight,0
;   maxPrintHeight,0
;   useDiaphragm,0
;   diaphragmLayerInterval,20
;   robustSlicing,1
;   mergeAllIntoSolid,0
;   onlyRetractWhenCrossingOutline,1
;   retractBetweenLayers,1
;   useRetractionMinTravel,0
;   retractionMinTravel,3
;   retractWhileWiping,0
;   onlyWipeOutlines,1
;   avoidCrossingOutline,0
;   maxMovementDetourFactor,3
;   toolChangeRetractionDistance,12
;   toolChangeExtraRestartDistance,-0.5
;   toolChangeRetractionSpeed,600
;   externalThinWallType,0
;   internalThinWallType,2
;   thinWallAllowedOverlapPercentage,10
;   singleExtrusionMinLength,1
;   singleExtrusionMinPrintingWidthPercentage,50
;   singleExtrusionMaxPrintingWidthPercentage,200
;   singleExtrusionEndpointExtension,0.2
;   horizontalSizeCompensation,0
G90
M82
M106 S0
M140 S110
M190 S110
M104 S230 T0
M109 S230 T0
G28 ; home all axes
G92 E0
G1 E-1.0000 F1800
G1 Z0.090 F1002
; process Process1
; layer 1, Z = 0.090
T0
; tool H0.150 W0.220
; skirt
G1 X67.127 Y103.600 F4200
G1 E0.0000 F540
G92 E0
G1 X69.873 Y103.600 E0.0414 F2400
G1 X70.400 Y104.127 E0.0527
G1 X70.400 Y111.600 E0.1655
G1 X152.873 Y111.600 E1.4101
G1 X153.400 Y112.127 E1.4214
G1 X153.400 Y115.873 E1.4779
G1 X152.873 Y116.400 E1.4892
G1 X67.127 Y116.400 E2.7832
G1 X66.600 Y115.873 E2.7945
G1 X66.600 Y104.127 E2.9717
G1 X66.986 Y103.741 E2.9800
G1 X67.127 Y103.600 F2400
G1 X67.210 Y103.800 F4200
G92 E0
G1 X69.790 Y103.800 E0.0389 F2400
G1 X70.200 Y104.210 E0.0477
G1 X70.200 Y111.800 E0.1622
G1 X152.790 Y111.800 E1.4087
G1 X153.200 Y112.210 E1.4174
G1 X153.200 Y115.790 E1.4714
G1 X152.790 Y116.200 E1.4802
G1 X67.210 Y116.200 E2.7717
G1 X66.800 Y115.790 E2.7805
G1 X66.800 Y104.210 E2.9553
G1 X67.069 Y103.941 E2.9610
G1 X67.210 Y103.800 F2400
G1 X67.293 Y104.000 F4200
G92 E0
G1 X69.707 Y104.000 E0.0364 F2400
G1 X70.000 Y104.293 E0.0427
G1 X70.000 Y112.000 E0.1590
G1 X152.707 Y112.000 E1.4072
G1 X153.000 Y112.293 E1.4134
G1 X153.000 Y115.707 E1.4650
G1 X152.707 Y116.000 E1.4712
G1 X67.293 Y116.000 E2.7603
G1 X67.000 Y115.707 E2.7665
G1 X67.000 Y104.293 E2.9388
G1 X67.151 Y104.141 E2.9420
G1 X67.293 Y104.000 F2400
G1 X67.376 Y104.200 F4200
G92 E0
G1 X69.624 Y104.200 E0.0339 F2400
G1 X69.800 Y104.376 E0.0377
G1 X69.800 Y112.200 E0.1558
G1 X152.624 Y112.200 E1.4057
G1 X152.800 Y112.376 E1.4095
G1 X152.800 Y115.624 E1.4585
G1 X152.624 Y115.800 E1.4623
G1 X67.376 Y115.800 E2.7488
G1 X67.200 Y115.624 E2.7526
G1 X67.200 Y104.376 E2.9223
G1 X67.234 Y104.341 E2.9231
G1 X67.376 Y104.200 F2400
G1 X67.459 Y104.400 F4200
G92 E0
G1 X69.541 Y104.400 E0.0314 F2400
G1 X69.600 Y104.459 E0.0327
G1 X69.600 Y112.400 E0.1525
G1 X152.541 Y112.400 E1.4043
G1 X152.600 Y112.459 E1.4055
G1 X152.600 Y115.541 E1.4520
G1 X152.541 Y115.600 E1.4533
G1 X67.459 Y115.600 E2.7373
G1 X67.400 Y115.541 E2.7386
G1 X67.400 Y104.576 E2.9041
G1 X67.400 Y104.459 F2400
G1 X67.459 Y104.400 F2400
G92 E0
G1 E-1.0000 F1800
; inner perimeter
G1 X68.050 Y105.050 F4200
G1 E0.0000 F1800
G92 E0
G1 X68.950 Y105.050 E0.0136 F1800
G1 X68.950 Y113.050 E0.1343
G1 X151.950 Y113.050 E1.3869
G1 X151.950 Y114.950 E1.4156
G1 X68.050 Y114.950 E2.6818
G1 X68.050 Y105.250 E2.8282
G1 X68.050 Y105.050 F1800
G1 X67.830 Y104.830 F4200
G92 E0
G1 X69.170 Y104.830 E0.0202 F1800
G1 X69.170 Y112.830 E0.1410
G1 X152.170 Y112.830 E1.3936
G1 X152.170 Y115.170 E1.4289
G1 X67.830 Y115.170 E2.7017
G1 X67.830 Y105.030 E2.8548
G1 X67.830 Y104.830 F1800
; outer perimeter
G1 X67.610 Y104.610 F4200
G92 E0
G1 X69.390 Y104.610 E0.0269 F1200
G1 X69.390 Y112.610 E0.1476
G1 X152.390 Y112.610 E1.4002
G1 X152.390 Y115.390 E1.4422
G1 X67.610 Y115.390 E2.7217
G1 X67.610 Y104.810 E2.8813
G1 X67.610 Y104.610 F1200
; solid layer
G1 X68.524 Y105.237 F4200
G92 E0
G1 X68.763 Y105.476 E0.0051 F1680
G1 X68.763 Y105.787 E0.0098
G1 X68.237 Y105.261 E0.0210
G1 X68.237 Y105.572 E0.0257
G1 X68.763 Y106.098 E0.0369
G1 X68.763 Y106.409 E0.0416
G1 X68.237 Y105.883 E0.0529
G1 X68.237 Y106.194 E0.0576
G1 X68.763 Y106.720 E0.0688
G1 X68.763 Y107.032 E0.0735
G1 X68.237 Y106.506 E0.0847
G1 X68.237 Y106.817 E0.0894
G1 X68.763 Y107.343 E0.1006
G1 X68.763 Y107.654 E0.1053
G1 X68.237 Y107.128 E0.1166
G1 X68.237 Y107.439 E0.1212
G1 X68.763 Y107.965 E0.1325
G1 X68.763 Y108.276 E0.1372
G1 X68.237 Y107.750 E0.1484
G1 X68.237 Y108.061 E0.1531
G1 X68.763 Y108.587 E0.1643
G1 X68.763 Y108.898 E0.1690
G1 X68.237 Y108.372 E0.1802
G1 X68.237 Y108.683 E0.1849
G1 X68.763 Y109.209 E0.1962
G1 X68.763 Y109.521 E0.2009
G1 X68.237 Y108.995 E0.2121
G1 X68.237 Y109.306 E0.2168
G1 X68.763 Y109.832 E0.2280
G1 X68.763 Y110.143 E0.2327
G1 X68.237 Y109.617 E0.2439
G1 X68.237 Y109.928 E0.2486
G1 X68.763 Y110.454 E0.2599
G1 X68.763 Y110.765 E0.2645
G1 X68.237 Y110.239 E0.2758
G1 X68.237 Y110.550 E0.2805
G1 X68.763 Y111.076 E0.2917
G1 X68.763 Y111.387 E0.2964
G1 X68.237 Y110.861 E0.3076
G1 X68.237 Y111.173 E0.3123
G1 X68.763 Y111.699 E0.3235
G1 X68.763 Y112.010 E0.3282
G1 X68.237 Y111.484 E0.3395
G1 X68.237 Y111.795 E0.3442
G1 X68.763 Y112.321 E0.3554
G1 X68.763 Y112.632 E0.3601
G1 X68.237 Y112.106 E0.3713
G1 X68.237 Y112.417 E0.3760
G1 X68.763 Y112.943 E0.3872
G1 X68.763 Y113.237 E0.3917
G1 X69.057 Y113.237 E0.3961
G1 X70.583 Y114.763 E0.4287
G1 X70.894 Y114.763 E0.4334
G1 X69.368 Y113.237 E0.4659
G1 X69.679 Y113.237 E0.4706
G1 X71.205 Y114.763 E0.5032
G1 X71.516 Y114.763 E0.5079
G1 X69.990 Y113.237 E0.5405
G1 X70.301 Y113.237 E0.5452
G1 X71.827 Y114.763 E0.5777
G1 X72.139 Y114.763 E0.5824
G1 X70.613 Y113.237 E0.6150
G1 X70.924 Y113.237 E0.6197
G1 X72.450 Y114.763 E0.6523
G1 X72.761 Y114.763 E0.6570
G1 X71.235 Y113.237 E0.6895
G1 X71.546 Y113.237 E0.6942
G1 X73.072 Y114.763 E0.7268
G1 X73.383 Y114.763 E0.7315
G1 X71.857 Y113.237 E0.7641
G1 X72.168 Y113.237 E0.7687
G1 X73.694 Y114.763 E0.8013
G1 X74.005 Y114.763 E0.8060
G1 X72.479 Y113.237 E0.8386
G1 X72.791 Y113.237 E0.8433
G1 X74.317 Y114.763 E0.8758
G1 X74.628 Y114.763 E0.8805
G1 X73.102 Y113.237 E0.9131
G1 X73.413 Y113.237 E0.9178
G1 X74.939 Y114.763 E0.9504
G1 X75.250 Y114.763 E0.9551
G1 X73.724 Y113.237 E0.9876
G1 X74.035 Y113.237 E0.9923
G1 X75.561 Y114.763 E1.0249
G1 X75.872 Y114.763 E1.0296
G1 X74.346 Y113.237 E1.0622
G1 X74.657 Y113.237 E1.0669
G1 X76.183 Y114.763 E1.0994
G1 X76.494 Y114.763 E1.1041
G1 X74.968 Y113.237 E1.1367
G1 X75.280 Y113.237 E1.1414
G1 X76.806 Y114.763 E1.1740
G1 X77.117 Y114.763 E1.1787
G1 X75.591 Y113.237 E1.2112
G1 X75.902 Y113.237 E1.2159
G1 X77.428 Y114.763 E1.2485
G1 X77.739 Y114.763 E1.2532
G1 X76.213 Y113.237 E1.2858
G1 X76.524 Y113.237 E1.2905
G1 X78.050 Y114.763 E1.3230
G1 X78.361 Y114.763 E1.3277
G1 X76.835 Y113.237 E1.3603
G1 X77.146 Y113.237 E1.3650
G1 X78.672 Y114.763 E1.3976
G1 X78.983 Y114.763 E1.4023
G1 X77.457 Y113.237 E1.4348
G1 X77.769 Y113.237 E1.4395
G1 X79.295 Y114.763 E1.4721
G1 X79.606 Y114.763 E1.4768
G1 X78.080 Y113.237 E1.5094
G1 X78.391 Y113.237 E1.5140
G1 X79.917 Y114.763 E1.5466
G1 X80.228 Y114.763 E1.5513
G1 X78.702 Y113.237 E1.5839
G1 X79.013 Y113.237 E1.5886
G1 X80.539 Y114.763 E1.6211
G1 X80.850 Y114.763 E1.6258
G1 X79.324 Y113.237 E1.6584
G1 X79.635 Y113.237 E1.6631
G1 X81.161 Y114.763 E1.6957
G1 X81.472 Y114.763 E1.7004
G1 X79.946 Y113.237 E1.7329
G1 X80.258 Y113.237 E1.7376
G1 X81.784 Y114.763 E1.7702
G1 X82.095 Y114.763 E1.7749
G1 X80.569 Y113.237 E1.8075
G1 X80.880 Y113.237 E1.8122
G1 X82.406 Y114.763 E1.8447
G1 X82.717 Y114.763 E1.8494
G1 X81.191 Y113.237 E1.8820
G1 X81.502 Y113.237 E1.8867
G1 X83.028 Y114.763 E1.9193
G1 X83.339 Y114.763 E1.9240
G1 X81.813 Y113.237 E1.9565
G1 X82.124 Y113.237 E1.9612
G1 X83.650 Y114.763 E1.9938
G1 X83.961 Y114.763 E1.9985
G1 X82.435 Y113.237 E2.0311
G1 X82.747 Y113.237 E2.0358
G1 X84.273 Y114.763 E2.0683
G1 X84.584 Y114.763 E2.0730
G1 X83.058 Y113.237 E2.1056
G1 X83.369 Y113.237 E2.1103
G1 X84.895 Y114.763 E2.1429
G1 X85.206 Y114.763 E2.1475
G1 X83.680 Y113.237 E2.1801
G1 X83.991 Y113.237 E2.1848
G1 X85.517 Y114.763 E2.2174
G1 X85.828 Y114.763 E2.2221
G1 X84.302 Y113.237 E2.2546
G1 X84.613 Y113.237 E2.2593
G1 X86.139 Y114.763 E2.2919
G1 X86.450 Y114.763 E2.2966
G1 X84.924 Y113.237 E2.3292
G1 X85.236 Y113.237 E2.3339
G1 X86.762 Y114.763 E2.3664
G1 X87.073 Y114.763 E2.3711
G1 X85.547 Y113.237 E2.4037
G1 X85.858 Y113.237 E2.4084
G1 X87.384 Y114.763 E2.4410
G1 X87.695 Y114.763 E2.4457
G1 X86.169 Y113.237 E2.4782
G1 X86.480 Y113.237 E2.4829
G1 X88.006 Y114.763 E2.5155
G1 X88.317 Y114.763 E2.5202
G1 X86.791 Y113.237 E2.5528
G1 X87.102 Y113.237 E2.5575
G1 X88.628 Y114.763 E2.5900
G1 X88.939 Y114.763 E2.5947
G1 X87.413 Y113.237 E2.6273
G1 X87.725 Y113.237 E2.6320
G1 X89.251 Y114.763 E2.6646
G1 X89.562 Y114.763 E2.6693
G1 X88.036 Y113.237 E2.7018
G1 X88.347 Y113.237 E2.7065
G1 X89.873 Y114.763 E2.7391
G1 X90.184 Y114.763 E2.7438
G1 X88.658 Y113.237 E2.7764
G1 X88.969 Y113.237 E2.7811
G1 X90.495 Y114.763 E2.8136
G1 X90.806 Y114.763 E2.8183
G1 X89.280 Y113.237 E2.8509
G1 X89.591 Y113.237 E2.8556
G1 X91.117 Y114.763 E2.8882
G1 X91.428 Y114.763 E2.8928
G1 X89.902 Y113.237 E2.9254
G1 X90.214 Y113.237 E2.9301
G1 X91.740 Y114.763 E2.9627
G1 X92.051 Y114.763 E2.9674
G1 X90.525 Y113.237 E2.9999
G1 X90.836 Y113.237 E3.0046
G1 X92.362 Y114.763 E3.0372
G1 X92.673 Y114.763 E3.0419
G1 X91.147 Y113.237 E3.0745
G1 X91.458 Y113.237 E3.0792
G1 X92.984 Y114.763 E3.1117
G1 X93.295 Y114.763 E3.1164
G1 X91.769 Y113.237 E3.1490
G1 X92.080 Y113.237 E3.1537
G1 X93.606 Y114.763 E3.1863
G1 X93.918 Y114.763 E3.1910
G1 X92.392 Y113.237 E3.2235
G1 X92.703 Y113.237 E3.2282
G1 X94.229 Y114.763 E3.2608
G1 X94.540 Y114.763 E3.2655
G1 X93.014 Y113.237 E3.2981
G1 X93.325 Y113.237 E3.3028
G1 X94.851 Y114.763 E3.3353
G1 X95.162 Y114.763 E3.3400
G1 X93.636 Y113.237 E3.3726
G1 X93.947 Y113.237 E3.3773
G1 X95.473 Y114.763 E3.4099
G1 X95.784 Y114.763 E3.4146
G1 X94.258 Y113.237 E3.4471
G1 X94.569 Y113.237 E3.4518
G1 X96.095 Y114.763 E3.4844
G1 X96.407 Y114.763 E3.4891
G1 X94.881 Y113.237 E3.5217
G1 X95.192 Y113.237 E3.5264
G1 X96.718 Y114.763 E3.5589
G1 X97.029 Y114.763 E3.5636
G1 X95.503 Y113.237 E3.5962
G1 X95.814 Y113.237 E3.6009
G1 X97.340 Y114.763 E3.6334
G1 X97.651 Y114.763 E3.6381
G1 X96.125 Y113.237 E3.6707
G1 X96.436 Y113.237 E3.6754
G1 X97.962 Y114.763 E3.7080
G1 X98.273 Y114.763 E3.7127
G1 X96.747 Y113.237 E3.7452
G1 X97.058 Y113.237 E3.7499
G1 X98.584 Y114.763 E3.7825
G1 X98.896 Y114.763 E3.7872
G1 X97.370 Y113.237 E3.8198
G1 X97.681 Y113.237 E3.8245
G1 X99.207 Y114.763 E3.8570
G1 X99.518 Y114.763 E3.8617
G1 X97.992 Y113.237 E3.8943
G1 X98.303 Y113.237 E3.8990
G1 X99.829 Y114.763 E3.9316
G1 X100.140 Y114.763 E3.9363
G1 X98.614 Y113.237 E3.9688
G1 X98.925 Y113.237 E3.9735
G1 X100.451 Y114.763 E4.0061
G1 X100.762 Y114.763 E4.0108
G1 X99.236 Y113.237 E4.0434
G1 X99.547 Y113.237 E4.0481
G1 X101.073 Y114.763 E4.0806
G1 X101.385 Y114.763 E4.0853
G1 X99.859 Y113.237 E4.1179
