;FLAVOR:Marlin
;TIME:1251
;Filament used: 0.214813m
;Layer height: 0.1
;Generated with Cura_SteamEngine 3.3.0
M190 S60
M104 S227
M109 S227
M82 ;absolute extrusion mode
G28 ;Home
G1 Z15.0 F6000 ;Move the platform down 15mm
;Prime the extruder
G92 E0
G1 F200 E3
G92 E0
G92 E0
G1 F9000 E-3
;LAYER_COUNT:29
;LAYER:0
M107
G0 F3600 X106.399 Y87.886 Z0.3
;TYPE:SKIRT
G1 F9000 E0
G1 F600 X106.656 Y87.587 E0.01475
G1 X106.968 Y87.345 E0.02953
G1 X107.322 Y87.172 E0.04427
G1 X107.704 Y87.073 E0.05904
G1 X108 Y87.05 E0.07014
G1 X112 Y87.05 E0.21982
G1 X112.392 Y87.09 E0.23456
G1 X112.769 Y87.208 E0.24934
G1 X113.114 Y87.399 E0.2641
G1 X113.413 Y87.656 E0.27885
G1 X113.655 Y87.968 E0.29362
G1 X113.828 Y88.322 E0.30837
G1 X113.927 Y88.704 E0.32313
G1 X113.95 Y89 E0.33424
G1 X113.95 Y122.605 E1.59166
G1 X114.614 Y123.269 E1.6268
G1 X114.863 Y123.575 E1.64156
G1 X114.973 Y123.763 E1.64971
G1 X115.541 Y124.879 E1.69656
G1 X115.683 Y125.247 E1.71132
G1 X115.729 Y125.457 E1.71937
G1 X115.926 Y126.693 E1.7662
G1 X115.948 Y127.087 E1.78097
G1 X115.926 Y127.307 E1.78924
G1 X115.729 Y128.543 E1.83607
G1 X115.628 Y128.924 E1.85082
G1 X115.541 Y129.121 E1.85888
G1 X114.973 Y130.237 E1.90573
G1 X114.759 Y130.568 E1.92048
G1 X114.614 Y130.731 E1.92864
G1 X113.731 Y131.614 E1.97537
G1 X113.425 Y131.863 E1.99013
G1 X113.237 Y131.973 E1.99828
G1 X112.121 Y132.541 E2.04514
G1 X111.753 Y132.683 E2.0599
G1 X111.543 Y132.729 E2.06794
G1 X110.307 Y132.926 E2.11477
G1 X109.913 Y132.948 E2.12954
G1 X109.693 Y132.926 E2.13781
G1 X108.457 Y132.729 E2.18464
G1 X108.076 Y132.628 E2.19939
G1 X107.879 Y132.541 E2.20745
G1 X106.763 Y131.973 E2.2543
G1 X106.432 Y131.759 E2.26905
G1 X106.269 Y131.614 E2.27722
G1 X105.386 Y130.731 E2.32394
G1 X105.137 Y130.425 E2.3387
G1 X105.027 Y130.237 E2.34685
G1 X104.459 Y129.121 E2.39371
G1 X104.317 Y128.753 E2.40847
G1 X104.271 Y128.543 E2.41651
G1 X104.074 Y127.307 E2.46334
G1 X104.052 Y126.913 E2.47811
G1 X104.074 Y126.693 E2.48638
G1 X104.271 Y125.457 E2.53321
G1 X104.372 Y125.076 E2.54796
G1 X104.459 Y124.879 E2.55602
G1 X105.027 Y123.763 E2.60288
G1 X105.241 Y123.432 E2.61762
G1 X105.386 Y123.269 E2.62579
G1 X106.05 Y122.605 E2.66092
G1 X106.05 Y89 E3.91834
G1 X106.09 Y88.608 E3.93309
G1 X106.208 Y88.231 E3.94787
G1 X106.399 Y87.886 E3.96262
G0 F3600 X106.697 Y87.987
G1 F600 X106.95 Y87.727 E3.9762
G1 X107.254 Y87.528 E3.98979
G1 X107.593 Y87.401 E4.00334
G1 X108 Y87.35 E4.01869
G1 X112 Y87.35 E4.16836
G1 X112.361 Y87.39 E4.18195
G1 X112.704 Y87.508 E4.19552
G1 X113.013 Y87.697 E4.20908
G1 X113.273 Y87.95 E4.22265
G1 X113.472 Y88.254 E4.23624
G1 X113.599 Y88.593 E4.24979
G1 X113.65 Y89 E4.26514
G1 X113.65 Y122.729 E5.5272
G1 X114.402 Y123.481 E5.56699
G1 X114.705 Y123.9 E5.58634
G1 X115.273 Y125.016 E5.6332
G1 X115.432 Y125.504 E5.6524
G1 X115.629 Y126.74 E5.69923
G1 X115.629 Y127.26 E5.71869
G1 X115.432 Y128.496 E5.76552
G1 X115.273 Y128.984 E5.78473
G1 X114.705 Y130.1 E5.83158
G1 X114.402 Y130.519 E5.85093
G1 X113.519 Y131.402 E5.89765
G1 X113.1 Y131.705 E5.917
G1 X111.984 Y132.273 E5.96386
G1 X111.496 Y132.432 E5.98306
G1 X110.26 Y132.629 E6.02989
G1 X109.74 Y132.629 E6.04935
G1 X108.504 Y132.432 E6.09618
G1 X108.016 Y132.273 E6.11539
G1 X106.9 Y131.705 E6.16224
G1 X106.481 Y131.402 E6.18159
G1 X105.598 Y130.519 E6.22832
G1 X105.295 Y130.1 E6.24766
G1 X104.727 Y128.984 E6.29452
G1 X104.568 Y128.496 E6.31372
G1 X104.371 Y127.26 E6.36056
G1 X104.371 Y126.74 E6.38001
G1 X104.568 Y125.504 E6.42685
G1 X104.727 Y125.016 E6.44605
G1 X105.295 Y123.9 E6.49291
G1 X105.598 Y123.481 E6.51225
G1 X106.35 Y122.729 E6.55205
G1 X106.35 Y89 E7.81411
G1 X106.39 Y88.639 E7.8277
G1 X106.508 Y88.296 E7.84127
G1 X106.697 Y87.987 E7.85482
G0 F3600 X106.807 Y88.368
G1 F600 X106.995 Y88.099 E7.8671
G1 X107.242 Y87.883 E7.87938
G1 X107.533 Y87.733 E7.89163
G1 X108 Y87.65 E7.90938
G1 X112 Y87.65 E8.05905
G1 X112.326 Y87.69 E8.07134
G1 X112.632 Y87.807 E8.0836
G1 X112.901 Y87.995 E8.09588
G1 X113.117 Y88.242 E8.10815
G1 X113.267 Y88.533 E8.1204
G1 X113.35 Y89 E8.13815
G1 X113.35 Y122.853 E9.40485
G1 X114.19 Y123.693 E9.4493
G1 X114.438 Y124.036 E9.46514
G1 X115.006 Y125.152 E9.51199
G1 X115.136 Y125.552 E9.52773
G1 X115.333 Y126.788 E9.57456
G1 X115.333 Y127.212 E9.59043
G1 X115.136 Y128.448 E9.63726
G1 X115.006 Y128.848 E9.653
G1 X114.438 Y129.964 E9.69985
G1 X114.19 Y130.307 E9.71569
G1 X113.307 Y131.19 E9.76242
G1 X112.964 Y131.438 E9.77826
G1 X111.848 Y132.006 E9.82511
G1 X111.448 Y132.136 E9.84085
G1 X110.212 Y132.333 E9.88768
G1 X109.788 Y132.333 E9.90355
G1 X108.552 Y132.136 E9.95038
G1 X108.152 Y132.006 E9.96612
G1 X107.036 Y131.438 E10.01297
G1 X106.693 Y131.19 E10.02881
G1 X105.81 Y130.307 E10.07553
G1 X105.562 Y129.964 E10.09137
G1 X104.994 Y128.848 E10.13823
G1 X104.864 Y128.448 E10.15396
G1 X104.667 Y127.212 E10.2008
G1 X104.667 Y126.788 E10.21666
G1 X104.864 Y125.552 E10.26349
G1 X104.994 Y125.152 E10.27923
G1 X105.562 Y124.036 E10.32609
G1 X105.81 Y123.693 E10.34192
G1 X106.65 Y122.853 E10.38637
G1 X106.65 Y89 E11.65307
G1 X106.69 Y88.674 E11.66536
G1 X106.807 Y88.368 E11.67762
G0 F3600 X107.106 Y88.449
G1 F600 X107.29 Y88.226 E11.68844
G1 X107.528 Y88.062 E11.69925
G1 X107.802 Y87.969 E11.71008
G1 X108 Y87.95 E11.71752
G1 X112 Y87.95 E11.86719
G1 X112.286 Y87.99 E11.878
G1 X112.551 Y88.106 E11.88882
G1 X112.774 Y88.29 E11.89964
G1 X112.938 Y88.528 E11.91046
G1 X113.031 Y88.802 E11.92128
G1 X113.05 Y89 E11.92873
G1 X113.05 Y122.991 E13.20059
G1 X113.094 Y123.023 E13.20263
G1 X113.977 Y123.906 E13.24935
G1 X114.171 Y124.172 E13.26167
G1 X114.739 Y125.288 E13.30853
G1 X114.84 Y125.599 E13.32076
G1 X115.037 Y126.835 E13.36759
G1 X115.037 Y127.165 E13.37994
G1 X114.84 Y128.401 E13.42677
G1 X114.739 Y128.712 E13.43901
G1 X114.171 Y129.828 E13.48586
G1 X113.977 Y130.094 E13.49818
G1 X113.094 Y130.977 E13.54491
G1 X112.828 Y131.171 E13.55723
G1 X111.712 Y131.739 E13.60408
G1 X111.401 Y131.84 E13.61632
G1 X110.165 Y132.037 E13.66315
G1 X109.835 Y132.037 E13.6755
G1 X108.599 Y131.84 E13.72233
G1 X108.288 Y131.739 E13.73456
G1 X107.172 Y131.171 E13.78142
G1 X106.906 Y130.977 E13.79374
G1 X106.023 Y130.094 E13.84046
G1 X105.829 Y129.828 E13.85278
G1 X105.261 Y128.712 E13.89964
G1 X105.16 Y128.401 E13.91187
G1 X104.963 Y127.165 E13.95871
G1 X104.963 Y126.835 E13.97105
G1 X105.16 Y125.599 E14.01789
G1 X105.261 Y125.288 E14.03012
G1 X105.829 Y124.172 E14.07698
G1 X106.023 Y123.906 E14.0893
G1 X106.906 Y123.023 E14.13602
G1 X106.95 Y122.991 E14.13806
G1 X106.95 Y89 E15.40992
G1 X106.99 Y88.714 E15.42073
G1 X107.106 Y88.449 E15.43155
G0 F3600 X107.405 Y88.544
G1 F600 X107.583 Y88.377 E15.44068
G1 X107.805 Y88.276 E15.44981
G1 X108 Y88.25 E15.45717
G1 X112 Y88.25 E15.60684
G1 X112.241 Y88.29 E15.61598
G1 X112.456 Y88.405 E15.6251
G1 X112.623 Y88.583 E15.63424
G1 X112.724 Y88.805 E15.64336
G1 X112.75 Y89 E15.65072
G1 X112.75 Y123.139 E16.92812
G1 X112.882 Y123.235 E16.93423
G1 X113.765 Y124.118 E16.98096
G1 X113.903 Y124.308 E16.98974
G1 X114.471 Y125.424 E17.0366
G1 X114.544 Y125.646 E17.04534
G1 X114.741 Y126.882 E17.09218
G1 X114.741 Y127.118 E17.10101
G1 X114.544 Y128.354 E17.14784
G1 X114.471 Y128.576 E17.15658
G1 X113.903 Y129.692 E17.20344
G1 X113.765 Y129.882 E17.21222
G1 X112.882 Y130.765 E17.25895
G1 X112.692 Y130.903 E17.26774
G1 X111.576 Y131.471 E17.31459
G1 X111.354 Y131.544 E17.32334
G1 X110.118 Y131.741 E17.37017
G1 X109.882 Y131.741 E17.379
G1 X108.646 Y131.544 E17.42583
G1 X108.424 Y131.471 E17.43458
G1 X107.308 Y130.903 E17.48143
G1 X107.118 Y130.765 E17.49022
G1 X106.235 Y129.882 E17.53694
G1 X106.097 Y129.692 E17.54573
G1 X105.529 Y128.576 E17.59259
G1 X105.456 Y128.354 E17.60133
G1 X105.259 Y127.118 E17.64816
G1 X105.259 Y126.882 E17.65699
G1 X105.456 Y125.646 E17.70382
G1 X105.529 Y125.424 E17.71257
G1 X106.097 Y124.308 E17.75942
G1 X106.235 Y124.118 E17.76821
G1 X107.118 Y123.235 E17.81494
G1 X107.25 Y123.139 E17.82104
G1 X107.25 Y89 E19.09844
G1 X107.29 Y88.759 E19.10759
G1 X107.405 Y88.544 E19.11671
G0 F3600 X107.59 Y88.816
G1 F600 X107.701 Y88.663 E19.12378
G1 X107.865 Y88.571 E19.13082
G1 X108 Y88.55 E19.13593
G1 X112 Y88.55 E19.2856
G1 X112.184 Y88.59 E19.29265
G1 X112.337 Y88.701 E19.29972
G1 X112.429 Y88.865 E19.30675
G1 X112.45 Y89 E19.31187
G1 X112.45 Y123.309 E20.59563
G1 X112.557 Y123.364 E20.60013
G1 X112.67 Y123.447 E20.60538
G1 X113.553 Y124.33 E20.6521
G1 X113.636 Y124.444 E20.65738
G1 X114.204 Y125.56 E20.70423
G1 X114.247 Y125.693 E20.70946
G1 X114.444 Y126.929 E20.7563
G1 X114.444 Y127.071 E20.76161
G1 X114.247 Y128.307 E20.80844
G1 X114.204 Y128.44 E20.81367
G1 X113.636 Y129.556 E20.86053
G1 X113.553 Y129.67 E20.8658
G1 X112.67 Y130.553 E20.91253
G1 X112.556 Y130.636 E20.91781
G1 X111.44 Y131.204 E20.96466
G1 X111.307 Y131.247 E20.96989
G1 X110.071 Y131.444 E21.01672
G1 X109.929 Y131.444 E21.02204
G1 X108.693 Y131.247 E21.06887
G1 X108.56 Y131.204 E21.0741
G1 X107.444 Y130.636 E21.12095
G1 X107.33 Y130.553 E21.12623
G1 X106.447 Y129.67 E21.17296
G1 X106.364 Y129.556 E21.17823
G1 X105.796 Y128.44 E21.22509
G1 X105.753 Y128.307 E21.23032
G1 X105.556 Y127.071 E21.27715
G1 X105.556 Y126.929 E21.28246
G1 X105.753 Y125.693 E21.3293
G1 X105.796 Y125.56 E21.33453
G1 X106.364 Y124.444 E21.38138
G1 X106.447 Y124.33 E21.38666
G1 X107.33 Y123.447 E21.43338
G1 X107.443 Y123.364 E21.43863
G1 X107.55 Y123.309 E21.44313
G1 X107.55 Y89 E22.72689
G1 X107.59 Y88.816 E22.73394
G0 F3600 X107.889 Y88.899
G1 F600 X108 Y88.85 E22.73848
G1 X112 Y88.85 E22.88815
G1 X112.101 Y88.889 E22.8922
G1 X112.15 Y89 E22.89674
G1 X112.15 Y123.493 E24.18739
G1 X112.42 Y123.631 E24.19873
G1 X112.458 Y123.659 E24.2005
G1 X113.341 Y124.542 E24.24722
G1 X113.369 Y124.58 E24.24899
G1 X113.937 Y125.696 E24.29585
G1 X113.951 Y125.74 E24.29757
G1 X114.148 Y126.976 E24.34441
G1 X114.148 Y127.024 E24.3462
G1 X113.951 Y128.26 E24.39303
G1 X113.937 Y128.304 E24.39476
G1 X113.369 Y129.42 E24.44162
G1 X113.341 Y129.458 E24.44338
G1 X112.458 Y130.341 E24.49011
G1 X112.42 Y130.369 E24.49187
G1 X111.304 Y130.937 E24.53873
G1 X111.26 Y130.951 E24.54046
G1 X110.024 Y131.148 E24.58729
G1 X109.976 Y131.148 E24.58909
G1 X108.74 Y130.951 E24.63592
G1 X108.696 Y130.937 E24.63765
G1 X107.58 Y130.369 E24.6845
G1 X107.542 Y130.341 E24.68627
G1 X106.659 Y129.458 E24.73299
G1 X106.631 Y129.42 E24.73476
G1 X106.063 Y128.304 E24.78161
G1 X106.049 Y128.26 E24.78334
G1 X105.852 Y127.024 E24.83017
G1 X105.852 Y126.976 E24.83197
G1 X106.049 Y125.74 E24.8788
G1 X106.063 Y125.696 E24.88053
G1 X106.631 Y124.58 E24.92739
G1 X106.659 Y124.542 E24.92915
G1 X107.542 Y123.659 E24.97588
G1 X107.58 Y123.631 E24.97764
G1 X107.85 Y123.493 E24.98899
G1 X107.85 Y89 E26.27964
G1 X107.889 Y88.899 E26.28369
G1 F9000 E23.28369
G0 F3600 X108.464 Y89.464
G0 X111.45 Y123.677
G0 X111.85 Y123.677
;TYPE:WALL-OUTER
G1 F9000 E26.28369
G1 F600 X112.263 Y123.888 E26.30104
G1 X113.112 Y124.737 E26.34597
G1 X113.66 Y125.812 E26.39112
G1 X113.848 Y127 E26.43612
G1 X113.66 Y128.188 E26.48113
G1 X113.112 Y129.263 E26.52628
G1 X112.263 Y130.112 E26.5712
G1 X111.188 Y130.66 E26.61635
G1 X110 Y130.848 E26.66136
G1 X108.812 Y130.66 E26.70636
G1 X107.737 Y130.112 E26.75151
G1 X106.888 Y129.263 E26.79644
G1 X106.34 Y128.188 E26.84158
G1 X106.152 Y127 E26.88659
G1 X106.34 Y125.812 E26.9316
G1 X106.888 Y124.737 E26.97674
G1 X107.737 Y123.888 E27.02167
G1 X108.15 Y123.677 E27.03902
G1 X108.15 Y89.15 E28.33094
G1 X111.85 Y89.15 E28.46939
G1 X111.85 Y123.677 E29.76131
G0 F3600 X111.983 Y123.745
G0 X111.801 Y124.101
G0 X109.228 Y124.625
G0 X108.533 Y124.979
G0 X107.979 Y125.533
G0 X107.693 Y126.095
G0 X107.451 Y126.938
G0 X107.845 Y127
G1 F600 X107.952 Y127.666 E29.78655
G1 X108.257 Y128.266 E29.81173
G1 X108.734 Y128.743 E29.83697
G1 X109.334 Y129.048 E29.86216
G1 X110 Y129.155 E29.8874
G1 X110.666 Y129.048 E29.91264
G1 X111.266 Y128.743 E29.93782
G1 X111.743 Y128.266 E29.96306
G1 X112.048 Y127.666 E29.98825
G1 X112.155 Y127 E30.01349
G1 X112.048 Y126.334 E30.03873
G1 X111.743 Y125.734 E30.06391
G1 X111.266 Y125.257 E30.08915
G1 X110.666 Y124.952 E30.11434
G1 X110 Y124.846 E30.13957
G1 X109.334 Y124.952 E30.16481
G1 X108.734 Y125.257 E30.18999
G1 X108.257 Y125.734 E30.21523
G1 X107.952 Y126.334 E30.24042
G1 X107.845 Y127 E30.26566
G0 F3600 X107.868 Y127.148
G0 X107.541 Y127
;TYPE:WALL-INNER
G1 F600 X107.663 Y127.76 E30.29446
G1 X108.011 Y128.444 E30.32317
G1 X108.556 Y128.989 E30.35201
G1 X109.24 Y129.337 E30.38073
G1 X110 Y129.459 E30.40953
G1 X110.76 Y129.337 E30.43833
G1 X111.444 Y128.989 E30.46705
G1 X111.989 Y128.444 E30.49589
G1 X112.337 Y127.76 E30.5246
G1 X112.459 Y127 E30.5534
G1 X112.337 Y126.24 E30.58221
G1 X111.989 Y125.556 E30.61092
G1 X111.444 Y125.011 E30.63976
G1 X110.76 Y124.663 E30.66848
G1 X110 Y124.542 E30.69727
G1 X109.24 Y124.663 E30.72607
G1 X108.556 Y125.011 E30.75478
G1 X108.011 Y125.556 E30.78362
G1 X107.663 Y126.24 E30.81234
G1 X107.541 Y127 E30.84114
G0 F3600 X107.441 Y127
G0 X107.625 Y126.228
G0 X107.979 Y125.533
G0 X108.533 Y124.979
G0 X109.095 Y124.693
G0 X111.465 Y123.913
G0 X111.55 Y123.861
G1 F600 X112.084 Y124.133 E30.86356
G1 X112.867 Y124.916 E30.905
G1 X113.371 Y125.906 E30.94657
G1 X113.545 Y127 E30.98801
G1 X113.371 Y128.094 E31.02946
G1 X112.867 Y129.084 E31.07103
G1 X112.084 Y129.867 E31.11247
G1 X111.094 Y130.371 E31.15403
G1 X110 Y130.545 E31.19548
G1 X108.906 Y130.371 E31.23693
G1 X107.916 Y129.867 E31.2785
G1 X107.133 Y129.084 E31.31993
G1 X106.629 Y128.094 E31.3615
G1 X106.455 Y127 E31.40295
G1 X106.629 Y125.906 E31.4444
G1 X107.133 Y124.916 E31.48597
G1 X107.916 Y124.133 E31.5274
G1 X108.45 Y123.861 E31.54982
G1 X108.45 Y89.45 E32.8374
G1 X111.55 Y89.45 E32.9534
G1 X111.55 Y123.861 E34.24098
G0 F3600 X111.25 Y124.045
G1 F600 X111.905 Y124.378 E34.26847
G1 X112.622 Y125.095 E34.30641
G1 X113.082 Y126 E34.3444
G1 X113.242 Y127 E34.38229
G1 X113.082 Y128 E34.42019
G1 X112.622 Y128.905 E34.45817
G1 X111.905 Y129.622 E34.49611
G1 X111 Y130.082 E34.5341
G1 X110 Y130.242 E34.57199
G1 X109 Y130.082 E34.60989
G1 X108.095 Y129.622 E34.64787
G1 X107.378 Y128.905 E34.68581
G1 X106.918 Y128 E34.7238
G1 X106.758 Y127 E34.76169
G1 X106.918 Y126 E34.79959
G1 X107.378 Y125.095 E34.83757
G1 X108.095 Y124.378 E34.87551
G1 X108.75 Y124.045 E34.90301
G1 X108.75 Y89.75 E36.18625
G1 X111.25 Y89.75 E36.27979
G1 X111.25 Y124.045 E37.56303
G0 F3600 X109.228 Y124.625
G0 X108.533 Y124.979
G0 X108.035 Y125.477
G0 X107.237 Y127
G1 F600 X107.374 Y127.854 E37.59539
G1 X107.765 Y128.622 E37.62764
G1 X108.378 Y129.235 E37.66008
G1 X109.146 Y129.626 E37.69232
G1 X110 Y129.763 E37.72469
G1 X110.854 Y129.626 E37.75705
G1 X111.622 Y129.235 E37.7893
G1 X112.235 Y128.622 E37.82173
G1 X112.626 Y127.854 E37.85398
G1 X112.763 Y127 E37.88634
G1 X112.626 Y126.146 E37.91871
G1 X112.235 Y125.378 E37.95095
G1 X111.622 Y124.765 E37.98339
G1 X110.854 Y124.374 E38.01564
G1 X110 Y124.238 E38.048
G1 X109.146 Y124.374 E38.08035
G1 X108.378 Y124.765 E38.1126
G1 X107.765 Y125.378 E38.14504
G1 X107.374 Y126.146 E38.17728
G1 X107.237 Y127 E38.20965
G0 F3600 X107.904 Y125.68
G0 X109.04 Y124.103
;TYPE:SKIN
G1 F600 X109.04 Y90.04 E39.48421
G1 X110.96 Y90.04 E39.55605
G1 X110.96 Y124.103 E40.83061
G1 X110.945 Y124.095 E40.83124
G1 X110 Y123.944 E40.86705
G1 X109.055 Y124.095 E40.90286
G1 X109.04 Y124.103 E40.90349
G0 F3600 X109.467 Y123.892
G1 F600 X109.174 Y123.599 E40.919
G0 F3600 X109.174 Y123.175
G1 F600 X109.832 Y123.833 E40.95382
G1 X109.885 Y123.886
G0 F3600 X110.274 Y123.85
G1 F600 X109.174 Y122.75 E41.01203
G1 X109.121 Y122.697
G0 F3600 X109.174 Y122.326
G1 F600 X110.778 Y123.931 E41.09693
G1 X110.831 Y123.984
G0 F3600 X110.824 Y123.552
G1 F600 X109.174 Y121.902 E41.18424
G1 X109.121 Y121.849
G0 F3600 X109.174 Y121.478
G1 F600 X110.824 Y123.128 E41.27155
G1 X110.877 Y123.181
G0 F3600 X110.824 Y122.704
G1 F600 X109.174 Y121.053 E41.35889
G1 X109.121 Y121
G0 F3600 X109.174 Y120.629
G1 F600 X110.824 Y122.279 E41.44621
G1 X110.877 Y122.332
G0 F3600 X110.824 Y121.855
G1 F600 X109.174 Y120.205 E41.53352
G1 X109.121 Y120.152
G0 F3600 X109.174 Y119.781
G1 F600 X110.824 Y121.431 E41.62083
G1 X110.877 Y121.484
