;FLAVOR:Marlin
;TIME:4212
;Filament used: 3.96967m
;Layer height: 0.2
;Generated with Cura_SteamEngine 3.3.0
M190 S110
M104 S230
M109 S230
M82 ;absolute extrusion mode
G28 ;Home
G29
;G1 Z15.0 F6000 ;Move the platform down 15mm
;Prime the extruder
G92 E0
G1 Y110 Z0.2 F1500
G1 F200 E14
G92 E0
G92 E0
G1 F1500 E-6.5
;LAYER_COUNT:45
;LAYER:0
M107
G0 F3600 X42.219 Y91.798 Z0.3
;TYPE:SKIRT
G1 F1500 E0
G1 F2100 X42.948 Y91.475 E0.02984
G1 X43.706 Y91.227 E0.05968
G1 X44.484 Y91.056 E0.08948
G1 X45.276 Y90.963 E0.11932
G1 X45.8 Y90.946 E0.13894
G1 X64.134 Y90.946 E0.82495
G1 X64.214 Y90.416 E0.84501
G1 X64.412 Y89.643 E0.87487
G1 X64.687 Y88.895 E0.90469
G1 X65.034 Y88.177 E0.93453
G1 X65.452 Y87.498 E0.96436
G1 X65.936 Y86.865 E0.99418
G1 X66.481 Y86.283 E1.02401
G1 X67.081 Y85.758 E1.05384
G1 X67.731 Y85.296 E1.08368
G1 X68.424 Y84.902 E1.11351
G1 X69.153 Y84.579 E1.14335
G1 X69.911 Y84.331 E1.17319
G1 X70.689 Y84.16 E1.20299
G1 X71.481 Y84.067 E1.23283
G1 X72.005 Y84.05 E1.25245
G1 X100.005 Y84.05 E2.30014
G1 X100.801 Y84.09 E2.32997
G1 X101.589 Y84.209 E2.35978
G1 X102.362 Y84.407 E2.38964
G1 X103.11 Y84.682 E2.41946
G1 X103.828 Y85.029 E2.4493
G1 X104.507 Y85.447 E2.47914
G1 X105.14 Y85.931 E2.50895
G1 X105.722 Y86.476 E2.53879
G1 X106.247 Y87.076 E2.56862
G1 X106.709 Y87.726 E2.59846
G1 X107.103 Y88.419 E2.62829
G1 X107.426 Y89.148 E2.65812
G1 X107.674 Y89.906 E2.68796
G1 X107.845 Y90.684 E2.71777
G1 X107.938 Y91.476 E2.74761
G1 X107.955 Y92 E2.76722
G1 X107.955 Y92.21 E2.77508
G1 X107.98 Y92.192 E2.77623
G1 X108.673 Y91.798 E2.80606
G1 X109.402 Y91.475 E2.8359
G1 X110.16 Y91.227 E2.86574
G1 X110.938 Y91.056 E2.89555
G1 X111.73 Y90.963 E2.92538
G1 X112.254 Y90.946 E2.945
G1 X130.588 Y90.946 E3.63102
G1 X130.668 Y90.416 E3.65107
G1 X130.866 Y89.643 E3.68093
G1 X131.141 Y88.895 E3.71075
G1 X131.488 Y88.177 E3.74059
G1 X131.906 Y87.498 E3.77042
G1 X132.39 Y86.865 E3.80024
G1 X132.935 Y86.283 E3.83007
G1 X133.535 Y85.758 E3.85991
G1 X134.185 Y85.296 E3.88974
G1 X134.878 Y84.902 E3.91957
G1 X135.607 Y84.579 E3.94941
G1 X136.365 Y84.331 E3.97925
G1 X137.143 Y84.16 E4.00906
G1 X137.935 Y84.067 E4.03889
G1 X138.459 Y84.05 E4.05851
G1 X166.459 Y84.05 E5.10621
G1 X167.255 Y84.09 E5.13603
G1 X168.043 Y84.209 E5.16585
G1 X168.816 Y84.407 E5.1957
G1 X169.564 Y84.682 E5.22552
G1 X170.282 Y85.029 E5.25536
G1 X170.961 Y85.447 E5.2852
G1 X171.594 Y85.931 E5.31501
G1 X172.176 Y86.476 E5.34485
G1 X172.701 Y87.076 E5.37468
G1 X173.163 Y87.726 E5.40452
G1 X173.557 Y88.419 E5.43435
G1 X173.88 Y89.148 E5.46418
G1 X174.128 Y89.906 E5.49402
G1 X174.299 Y90.684 E5.52383
G1 X174.392 Y91.476 E5.55367
G1 X174.409 Y92 E5.57329
G1 X174.409 Y128 E6.92032
G1 X174.369 Y128.796 E6.95014
G1 X174.25 Y129.584 E6.97996
G1 X174.052 Y130.357 E7.00982
G1 X173.777 Y131.105 E7.03964
G1 X173.43 Y131.823 E7.06948
G1 X173.012 Y132.502 E7.09931
G1 X172.528 Y133.135 E7.12913
G1 X171.983 Y133.717 E7.15896
G1 X171.383 Y134.242 E7.1888
G1 X170.733 Y134.704 E7.21864
G1 X170.04 Y135.098 E7.24846
G1 X169.311 Y135.421 E7.2783
G1 X168.553 Y135.669 E7.30814
G1 X167.775 Y135.84 E7.33795
G1 X166.983 Y135.933 E7.36778
G1 X166.459 Y135.95 E7.3874
G1 X138.459 Y135.95 E8.4351
G1 X137.663 Y135.91 E8.46492
G1 X136.875 Y135.791 E8.49474
G1 X136.102 Y135.593 E8.5246
G1 X135.354 Y135.318 E8.55442
G1 X134.636 Y134.971 E8.58425
G1 X133.957 Y134.553 E8.61409
G1 X133.324 Y134.069 E8.6439
G1 X133.007 Y133.772 E8.66016
G1 X112.463 Y134.139 E9.42899
G1 X111.666 Y134.113 E9.45883
G1 X110.876 Y134.008 E9.48865
G1 X110.1 Y133.823 E9.5185
G1 X109.347 Y133.563 E9.5483
G1 X108.623 Y133.228 E9.57815
G1 X107.937 Y132.822 E9.60798
G1 X107.295 Y132.35 E9.6378
G1 X106.882 Y131.976 E9.65865
G1 X106.558 Y132.502 E9.68176
G1 X106.074 Y133.135 E9.71158
G1 X105.529 Y133.717 E9.74141
G1 X104.929 Y134.242 E9.77124
G1 X104.279 Y134.704 E9.80108
G1 X103.586 Y135.098 E9.83091
G1 X102.857 Y135.421 E9.86075
G1 X102.099 Y135.669 E9.89059
G1 X101.321 Y135.84 E9.92039
G1 X100.529 Y135.933 E9.95023
G1 X100.005 Y135.95 E9.96985
G1 X72.005 Y135.95 E11.01754
G1 X71.209 Y135.91 E11.04737
G1 X70.421 Y135.791 E11.07719
G1 X69.648 Y135.593 E11.10704
G1 X68.9 Y135.318 E11.13686
G1 X68.182 Y134.971 E11.1667
G1 X67.503 Y134.553 E11.19654
G1 X66.87 Y134.069 E11.22635
G1 X66.553 Y133.772 E11.24261
G1 X46.009 Y134.139 E12.01144
G1 X45.212 Y134.113 E12.04127
G1 X44.422 Y134.008 E12.07109
G1 X43.646 Y133.823 E12.10094
G1 X42.893 Y133.563 E12.13075
G1 X42.169 Y133.228 E12.1606
G1 X41.483 Y132.822 E12.19043
G1 X40.841 Y132.35 E12.22025
G1 X40.249 Y131.815 E12.2501
G1 X39.714 Y131.224 E12.27993
G1 X39.241 Y130.583 E12.30974
G1 X38.834 Y129.897 E12.33958
G1 X38.498 Y129.174 E12.36942
G1 X38.236 Y128.421 E12.39925
G1 X38.051 Y127.645 E12.4291
G1 X37.945 Y126.855 E12.45892
G1 X37.919 Y126.346 E12.47799
G1 X37.919 Y126.342 E12.47814
G1 X37.867 Y125.9 E12.4948
G1 X37.85 Y125.376 E12.51441
G1 X37.85 Y98.896 E13.50523
G1 X37.89 Y98.1 E13.53505
G1 X38.009 Y97.312 E13.56487
G1 X38.207 Y96.539 E13.59473
G1 X38.482 Y95.791 E13.62455
G1 X38.829 Y95.073 E13.65439
G1 X39.247 Y94.394 E13.68423
G1 X39.731 Y93.761 E13.71404
G1 X40.276 Y93.179 E13.74388
G1 X40.876 Y92.654 E13.77371
G1 X41.526 Y92.192 E13.80355
G1 X42.219 Y91.798 E13.83337
G0 F3600 X42.502 Y91.994
G1 F2100 X43.223 Y91.693 E13.86261
G1 X43.972 Y91.468 E13.89187
G1 X44.74 Y91.32 E13.92114
G1 X45.8 Y91.246 E13.9609
G1 X64.394 Y91.246 E14.65664
G1 X64.395 Y91.219 E14.65765
G1 X64.514 Y90.446 E14.68692
G1 X64.712 Y89.689 E14.71619
G1 X64.986 Y88.957 E14.74544
G1 X65.334 Y88.256 E14.77472
G1 X65.751 Y87.595 E14.80397
G1 X66.233 Y86.979 E14.83323
G1 X66.776 Y86.416 E14.8625
G1 X67.373 Y85.912 E14.89174
G1 X68.019 Y85.47 E14.92102
G1 X68.707 Y85.098 E14.95029
G1 X69.428 Y84.797 E14.97952
G1 X70.177 Y84.572 E15.00879
G1 X70.945 Y84.424 E15.03805
G1 X72.005 Y84.35 E15.07781
G1 X100.005 Y84.35 E16.12551
G1 X100.786 Y84.39 E16.15477
G1 X101.559 Y84.509 E16.18403
G1 X102.316 Y84.707 E16.21331
G1 X103.048 Y84.981 E16.24256
G1 X103.749 Y85.329 E16.27184
G1 X104.41 Y85.746 E16.30108
G1 X105.026 Y86.228 E16.33035
G1 X105.589 Y86.771 E16.35962
G1 X106.093 Y87.368 E16.38885
G1 X106.535 Y88.014 E16.41814
G1 X106.907 Y88.702 E16.44741
G1 X107.208 Y89.423 E16.47664
G1 X107.433 Y90.172 E16.5059
G1 X107.581 Y90.94 E16.53517
G1 X107.655 Y92 E16.57493
G1 X107.655 Y92.785 E16.6043
G1 X108.268 Y92.366 E16.63209
G1 X108.956 Y91.994 E16.66135
G1 X109.677 Y91.693 E16.69059
G1 X110.426 Y91.468 E16.71985
G1 X111.194 Y91.32 E16.74911
G1 X112.254 Y91.246 E16.78887
G1 X130.848 Y91.246 E17.48462
G1 X130.849 Y91.219 E17.48563
G1 X130.968 Y90.446 E17.51489
G1 X131.166 Y89.689 E17.54417
G1 X131.44 Y88.957 E17.57342
G1 X131.788 Y88.256 E17.6027
G1 X132.205 Y87.595 E17.63194
G1 X132.687 Y86.979 E17.66121
G1 X133.23 Y86.416 E17.69048
G1 X133.827 Y85.912 E17.71971
G1 X134.473 Y85.47 E17.749
G1 X135.161 Y85.098 E17.77827
G1 X135.882 Y84.797 E17.8075
G1 X136.631 Y84.572 E17.83676
G1 X137.399 Y84.424 E17.86603
G1 X138.459 Y84.35 E17.90579
G1 X166.459 Y84.35 E18.95348
G1 X167.24 Y84.39 E18.98274
G1 X168.013 Y84.509 E19.01201
G1 X168.77 Y84.707 E19.04129
G1 X169.502 Y84.981 E19.07053
G1 X170.203 Y85.329 E19.09982
G1 X170.864 Y85.746 E19.12906
G1 X171.48 Y86.228 E19.15833
G1 X172.043 Y86.771 E19.18759
G1 X172.547 Y87.368 E19.21683
G1 X172.989 Y88.014 E19.24612
G1 X173.361 Y88.702 E19.27538
G1 X173.662 Y89.423 E19.30462
G1 X173.887 Y90.172 E19.33388
G1 X174.035 Y90.94 E19.36315
G1 X174.109 Y92 E19.40291
G1 X174.109 Y128 E20.74994
G1 X174.069 Y128.781 E20.7792
G1 X173.95 Y129.554 E20.80847
G1 X173.752 Y130.311 E20.83774
G1 X173.478 Y131.043 E20.86699
G1 X173.13 Y131.744 E20.89627
G1 X172.713 Y132.405 E20.92552
G1 X172.231 Y133.021 E20.95478
G1 X171.688 Y133.584 E20.98405
G1 X171.091 Y134.088 E21.01329
G1 X170.445 Y134.53 E21.04257
G1 X169.757 Y134.902 E21.07184
G1 X169.036 Y135.203 E21.10107
G1 X168.287 Y135.428 E21.13034
G1 X167.519 Y135.576 E21.1596
G1 X166.459 Y135.65 E21.19936
G1 X138.459 Y135.65 E22.24706
G1 X137.678 Y135.61 E22.27632
G1 X136.905 Y135.491 E22.30558
G1 X136.148 Y135.293 E22.33486
G1 X135.416 Y135.019 E22.36411
G1 X134.715 Y134.671 E22.39339
G1 X134.054 Y134.254 E22.42263
G1 X133.438 Y133.772 E22.4519
G1 X133.125 Y133.47 E22.46818
G1 X112.457 Y133.839 E23.24165
G1 X111.676 Y133.813 E23.27089
G1 X110.901 Y133.707 E23.30015
G1 X110.141 Y133.523 E23.32941
G1 X109.404 Y133.262 E23.35867
G1 X108.697 Y132.927 E23.38794
G1 X108.028 Y132.522 E23.4172
G1 X107.404 Y132.051 E23.44646
G1 X106.831 Y131.518 E23.47574
G1 X106.804 Y131.487 E23.47728
G1 X106.676 Y131.744 E23.48802
G1 X106.259 Y132.405 E23.51726
G1 X105.777 Y133.021 E23.54653
G1 X105.234 Y133.584 E23.5758
G1 X104.637 Y134.088 E23.60503
G1 X103.991 Y134.53 E23.63432
G1 X103.303 Y134.902 E23.66359
G1 X102.582 Y135.203 E23.69282
G1 X101.833 Y135.428 E23.72208
G1 X101.065 Y135.576 E23.75135
G1 X100.005 Y135.65 E23.79111
G1 X72.005 Y135.65 E24.8388
G1 X71.224 Y135.61 E24.86807
G1 X70.451 Y135.491 E24.89733
G1 X69.694 Y135.293 E24.92661
G1 X68.962 Y135.019 E24.95585
G1 X68.261 Y134.671 E24.98514
G1 X67.6 Y134.254 E25.01438
G1 X66.984 Y133.772 E25.04365
G1 X66.671 Y133.47 E25.05992
G1 X46.003 Y133.839 E25.83339
G1 X45.222 Y133.813 E25.86263
G1 X44.447 Y133.707 E25.8919
G1 X43.687 Y133.523 E25.92116
G1 X42.95 Y133.262 E25.95042
G1 X42.243 Y132.927 E25.97969
G1 X41.574 Y132.522 E26.00895
G1 X40.95 Y132.051 E26.0382
G1 X40.377 Y131.518 E26.06749
G1 X39.862 Y130.93 E26.09673
G1 X39.41 Y130.292 E26.12599
G1 X39.025 Y129.611 E26.15526
G1 X38.711 Y128.895 E26.18452
G1 X38.472 Y128.15 E26.21379
G1 X38.311 Y127.385 E26.24304
G1 X38.229 Y126.461 E26.27775
G1 X38.224 Y126.436 E26.27871
G1 X38.15 Y125.376 E26.31847
G1 X38.15 Y98.896 E27.30929
G1 X38.19 Y98.115 E27.33855
G1 X38.309 Y97.342 E27.36781
G1 X38.507 Y96.585 E27.39709
G1 X38.781 Y95.853 E27.42634
G1 X39.129 Y95.152 E27.45562
G1 X39.546 Y94.491 E27.48486
G1 X40.028 Y93.875 E27.51413
G1 X40.571 Y93.312 E27.5434
G1 X41.168 Y92.808 E27.57263
G1 X41.814 Y92.366 E27.60192
G1 X42.502 Y91.994 E27.63119
G0 F3600 X42.782 Y92.194
G1 F2100 X43.497 Y91.916 E27.65989
G1 X44.236 Y91.714 E27.68856
G1 X44.993 Y91.59 E27.71726
G1 X45.8 Y91.546 E27.7475
G1 X64.679 Y91.546 E28.45391
G1 X64.695 Y91.234 E28.4656
G1 X64.814 Y90.477 E28.49427
G1 X65.012 Y89.737 E28.52293
G1 X65.286 Y89.021 E28.55162
G1 X65.633 Y88.337 E28.58032
G1 X66.049 Y87.693 E28.60901
G1 X66.53 Y87.096 E28.63769
G1 X67.07 Y86.553 E28.66635
G1 X67.664 Y86.069 E28.69502
G1 X68.306 Y85.649 E28.72372
G1 X68.987 Y85.298 E28.75239
G1 X69.702 Y85.02 E28.78109
G1 X70.441 Y84.818 E28.80976
G1 X71.198 Y84.694 E28.83846
G1 X72.005 Y84.65 E28.8687
G1 X100.005 Y84.65 E29.9164
G1 X100.771 Y84.69 E29.9451
G1 X101.528 Y84.809 E29.97377
G1 X102.268 Y85.007 E30.00243
G1 X102.984 Y85.281 E30.03112
G1 X103.668 Y85.628 E30.05982
G1 X104.312 Y86.044 E30.08851
G1 X104.909 Y86.525 E30.11719
G1 X105.452 Y87.065 E30.14585
G1 X105.936 Y87.659 E30.17452
G1 X106.356 Y88.301 E30.20322
G1 X106.707 Y88.982 E30.23189
G1 X106.985 Y89.697 E30.2606
G1 X107.187 Y90.436 E30.28926
G1 X107.311 Y91.193 E30.31796
G1 X107.355 Y92 E30.34821
G1 X107.355 Y93.42 E30.40134
G1 X107.913 Y92.965 E30.42828
G1 X108.555 Y92.545 E30.45698
G1 X109.236 Y92.194 E30.48565
G1 X109.951 Y91.916 E30.51436
G1 X110.69 Y91.714 E30.54302
G1 X111.447 Y91.59 E30.57173
G1 X112.254 Y91.546 E30.60197
G1 X131.133 Y91.546 E31.30837
G1 X131.149 Y91.234 E31.32006
G1 X131.268 Y90.477 E31.34874
G1 X131.466 Y89.737 E31.3774
G1 X131.74 Y89.021 E31.40609
G1 X132.087 Y88.337 E31.43478
G1 X132.503 Y87.693 E31.46347
G1 X132.984 Y87.096 E31.49216
G1 X133.524 Y86.553 E31.52081
G1 X134.118 Y86.069 E31.54948
G1 X134.76 Y85.649 E31.57819
G1 X135.441 Y85.298 E31.60686
G1 X136.156 Y85.02 E31.63556
G1 X136.895 Y84.818 E31.66423
G1 X137.652 Y84.694 E31.69293
G1 X138.459 Y84.65 E31.72317
G1 X166.459 Y84.65 E32.77086
G1 X167.225 Y84.69 E32.79956
G1 X167.982 Y84.809 E32.82824
G1 X168.722 Y85.007 E32.8569
G1 X169.438 Y85.281 E32.88559
G1 X170.122 Y85.628 E32.91429
G1 X170.766 Y86.044 E32.94297
G1 X171.363 Y86.525 E32.97166
G1 X171.906 Y87.065 E33.00031
G1 X172.39 Y87.659 E33.02898
G1 X172.81 Y88.301 E33.05769
G1 X173.161 Y88.982 E33.08636
G1 X173.439 Y89.697 E33.11506
G1 X173.641 Y90.436 E33.14373
G1 X173.765 Y91.193 E33.17243
G1 X173.809 Y92 E33.20267
G1 X173.809 Y128 E34.54971
G1 X173.769 Y128.766 E34.57841
G1 X173.65 Y129.523 E34.60708
G1 X173.452 Y130.263 E34.63574
G1 X173.178 Y130.979 E34.66443
G1 X172.831 Y131.663 E34.69313
G1 X172.415 Y132.307 E34.72182
G1 X171.934 Y132.904 E34.7505
G1 X171.394 Y133.447 E34.77916
G1 X170.8 Y133.931 E34.80783
G1 X170.158 Y134.351 E34.83653
G1 X169.477 Y134.702 E34.8652
G1 X168.762 Y134.98 E34.8939
G1 X168.023 Y135.182 E34.92257
G1 X167.266 Y135.306 E34.95127
G1 X166.459 Y135.35 E34.98151
G1 X138.459 Y135.35 E36.02921
G1 X137.693 Y135.31 E36.05791
G1 X136.936 Y135.191 E36.08658
G1 X136.196 Y134.993 E36.11525
G1 X135.48 Y134.719 E36.14393
G1 X134.796 Y134.372 E36.17263
G1 X134.152 Y133.956 E36.20132
G1 X133.555 Y133.475 E36.23
G1 X133.246 Y133.168 E36.2463
G1 X112.452 Y133.539 E37.02449
G1 X111.686 Y133.513 E37.05317
G1 X110.927 Y133.407 E37.08184
G1 X110.183 Y133.222 E37.11053
G1 X109.462 Y132.961 E37.13922
G1 X108.772 Y132.627 E37.1679
G1 X108.121 Y132.222 E37.19659
G1 X107.516 Y131.752 E37.22526
G1 X106.963 Y131.221 E37.25395
G1 X106.735 Y130.951 E37.26717
G1 X106.724 Y130.979 E37.26829
G1 X106.377 Y131.663 E37.29699
G1 X105.961 Y132.307 E37.32568
G1 X105.48 Y132.904 E37.35437
G1 X104.94 Y133.447 E37.38302
G1 X104.346 Y133.931 E37.41169
G1 X103.704 Y134.351 E37.4404
G1 X103.023 Y134.702 E37.46906
G1 X102.308 Y134.98 E37.49777
G1 X101.569 Y135.182 E37.52643
G1 X100.812 Y135.306 E37.55514
G1 X100.005 Y135.35 E37.58538
G1 X72.005 Y135.35 E38.63307
G1 X71.239 Y135.31 E38.66177
G1 X70.482 Y135.191 E38.69045
G1 X69.742 Y134.993 E38.71911
G1 X69.026 Y134.719 E38.7478
G1 X68.342 Y134.372 E38.77649
G1 X67.698 Y133.956 E38.80518
G1 X67.101 Y133.475 E38.83387
G1 X66.792 Y133.168 E38.85017
G1 X45.998 Y133.539 E39.62835
G1 X45.232 Y133.513 E39.65703
G1 X44.473 Y133.407 E39.68571
G1 X43.729 Y133.222 E39.71439
G1 X43.008 Y132.961 E39.74308
G1 X42.318 Y132.627 E39.77177
G1 X41.667 Y132.222 E39.80046
G1 X41.062 Y131.752 E39.82912
G1 X40.509 Y131.221 E39.85781
G1 X40.014 Y130.636 E39.88648
G1 X39.583 Y130.002 E39.91517
G1 X39.22 Y129.327 E39.94385
G1 X38.929 Y128.617 E39.97256
G1 X38.714 Y127.882 E40.00121
G1 X38.577 Y127.127 E40.02992
G1 X38.518 Y126.334 E40.05968
G1 X38.518 Y126.329 E40.05987
G1 X38.494 Y126.183 E40.0654
G1 X38.45 Y125.376 E40.09564
G1 X38.45 Y98.896 E41.08646
G1 X38.49 Y98.13 E41.11516
G1 X38.609 Y97.373 E41.14384
G1 X38.807 Y96.633 E41.1725
G1 X39.081 Y95.917 E41.20118
G1 X39.428 Y95.233 E41.22988
G1 X39.844 Y94.589 E41.25857
G1 X40.325 Y93.992 E41.28726
G1 X40.865 Y93.449 E41.31591
G1 X41.459 Y92.965 E41.34458
G1 X42.101 Y92.545 E41.37329
G1 X42.782 Y92.194 E41.40195
G1 F1500 E34.90195
G1 F300 Z1.3
G0 F3600 X42.387 Y92.727 Z1.3
G1 F300 Z0.3
G1 F1500 E41.40195
G1 F2100 X43.062 Y92.399 E41.43004
G1 X43.768 Y92.145 E41.45811
G1 X44.498 Y91.967 E41.48623
G1 X45.242 Y91.868 E41.51431
G1 X45.8 Y91.846 E41.5352
G1 X64.963 Y91.846 E42.25224
G1 X64.995 Y91.25 E42.27457
G1 X65.114 Y90.509 E42.30265
G1 X65.312 Y89.785 E42.33074
G1 X65.586 Y89.086 E42.35883
G1 X65.932 Y88.42 E42.38691
G1 X66.347 Y87.794 E42.41502
G1 X66.826 Y87.216 E42.44311
G1 X67.364 Y86.693 E42.47118
G1 X67.955 Y86.229 E42.4993
G1 X68.592 Y85.831 E42.5274
G1 X69.267 Y85.503 E42.55548
G1 X69.973 Y85.249 E42.58356
G1 X70.703 Y85.071 E42.61167
G1 X71.447 Y84.972 E42.63976
G1 X72.005 Y84.95 E42.66065
G1 X100.005 Y84.95 E43.70835
G1 X100.755 Y84.99 E43.73645
G1 X101.496 Y85.109 E43.76453
G1 X102.22 Y85.307 E43.79262
G1 X102.919 Y85.581 E43.82071
G1 X103.585 Y85.927 E43.84879
G1 X104.211 Y86.342 E43.87689
G1 X104.789 Y86.821 E43.90498
G1 X105.312 Y87.359 E43.93306
G1 X105.776 Y87.95 E43.96117
G1 X106.174 Y88.587 E43.98928
G1 X106.502 Y89.262 E44.01736
G1 X106.756 Y89.968 E44.04543
G1 X106.934 Y90.698 E44.07355
G1 X107.033 Y91.442 E44.10163
